F[ERK1
CUT[I HA DAHEIM EN MAIDLI]
REG[Europa, Mitteleuropa, Schweiz]
KEY[E0556  16  C 2/4]
MEL[-5_  -6_-5_-4_-2_  -3_-5_1_
    -5_  -5_4_-6_-7_  1__0_
    -5_  -6_-5_-4_-2_  -3_-5_1_
    -5_  4_2_-6_-7_  1__0_
    3_  3_.22_3_  2_1_1_
    2_  1_-7_-6_-7_  2_1_1_
    43  1#_2_2_32  -7_1_1_
    31  -7_-5_-6_-7_  1__0_ //] >>
FCT[Liebes - Lied]
